static/tag/serverless.svg

<?xml version="1.0" standalone="no"?><!DOCTYPE svg PUBLIC "-//W3C//DTD SVG 1.1//EN" "http://www.w3.org/Graphics/SVG/1.1/DTD/svg11.dtd"><svg t="1597304934442" class="icon" viewBox="0 0 1024 1024" version="1.1" xmlns="http://www.w3.org/2000/svg" p-id="1783" xmlns:xlink="http://www.w3.org/1999/xlink" width="200" height="200"><defs><style type="text/css"></style></defs><path d="M763.733333 356.266667c-42.666667-108.8-149.333333-185.6-268.8-185.6-145.066667 0-266.666667 110.933333-285.866666 251.733333-96 21.333333-166.4 106.666667-166.4 209.066667 0 117.333333 96 213.333333 213.333333 213.333333h70.4c17.066667 0 32-14.933333 32-32s-14.933333-32-32-32H256c-83.2 0-149.333333-68.266667-149.333333-149.333333 0-74.666667 55.466667-138.666667 132.266666-149.333334h10.666667c10.666667 0 21.333333-10.666667 21.333333-21.333333v-8.533333c4.266667-119.466667 104.533333-217.6 224-217.6 98.133333 0 187.733333 66.133333 215.466667 160l2.133333 4.266666v2.133334c2.133333 8.533333 10.666667 14.933333 21.333334 14.933333h2.133333c96 0 179.2 76.8 181.333333 172.8 2.133333 100.266667-68.266667 181.333333-164.266666 187.733333h-55.466667c-17.066667 0-32 14.933333-32 32s12.8 29.866667 27.733333 32h55.466667C878.933333 838.4 981.333333 731.733333 981.333333 597.333333c0-125.866667-96-228.266667-217.6-241.066666z" fill="#00C1DE" p-id="1784"></path><path d="M535.466667 778.666667v-51.2h17.066666v-21.333334h-68.266666v21.333334h17.066666v51.2a38.250667 38.250667 0 0 0 17.066667 72.533333 38.250667 38.250667 0 0 0 17.066667-72.533333zM708.266667 706.133333h21.333333v21.333334h-21.333333zM394.666667 706.133333h21.333333v21.333334h-21.333333zM618.666667 706.133333h21.333333v21.333334h-21.333333zM663.466667 706.133333h21.333333v21.333334h-21.333333zM573.866667 706.133333h21.333333v21.333334h-21.333333zM349.866667 706.133333h21.333333v21.333334h-21.333333zM439.466667 706.133333h21.333333v21.333334h-21.333333zM307.2 706.133333h21.333333v21.333334h-21.333333zM307.2 635.733333h21.333333v17.066667h-21.333333zM307.2 672h21.333333v17.066667h-21.333333zM307.2 597.333333h21.333333v21.333334h-21.333333zM573.866667 597.333333h21.333333v21.333334h-21.333333zM439.466667 597.333333h21.333333v21.333334h-21.333333zM708.266667 597.333333h21.333333v21.333334h-21.333333zM708.266667 672h21.333333v17.066667h-21.333333zM708.266667 635.733333h21.333333v17.066667h-21.333333zM518.4 445.866667a38.250667 38.250667 0 0 0-17.066667 72.533333V597.333333h-17.066666v21.333334h68.266666v-21.333334h-17.066666v-78.933333a38.250667 38.250667 0 0 0-17.066667-72.533333zM420.266667 484.266667c0-21.333333-17.066667-38.4-38.4-38.4a38.250667 38.250667 0 0 0-17.066667 72.533333V597.333333h-14.933333v21.333334h66.133333v-21.333334h-19.2v-78.933333c14.933333-4.266667 23.466667-19.2 23.466667-34.133333zM667.733333 618.666667h17.066667v-21.333334h-17.066667v-78.933333a38.250667 38.250667 0 0 0-17.066666-72.533333 38.250667 38.250667 0 0 0-17.066667 72.533333V597.333333H618.666667v21.333334h49.066666z" fill="#00C1DE" p-id="1785"></path></svg>

<svg viewBox="0 0 1024 1024" xmlns="http://www.w3.org/2000/svg" width="200" height="200"><path d="M763.733 356.267c-42.666-108.8-149.333-185.6-268.8-185.6-145.066 0-266.666 110.933-285.866 251.733-96 21.333-166.4 106.667-166.4 209.067 0 117.333 96 213.333 213.333 213.333h70.4c17.067 0 32-14.933 32-32s-14.933-32-32-32H256c-83.2 0-149.333-68.267-149.333-149.333 0-74.667 55.466-138.667 132.266-149.334H249.6c10.667 0 21.333-10.666 21.333-21.333v-8.533c4.267-119.467 104.534-217.6 224-217.6 98.134 0 187.734 66.133 215.467 160l2.133 4.266v2.134C714.667 409.6 723.2 416 733.867 416H736c96 0 179.2 76.8 181.333 172.8 2.134 100.267-68.266 181.333-164.266 187.733H697.6c-17.067 0-32 14.934-32 32s12.8 29.867 27.733 32H748.8c130.133-2.133 232.533-108.8 232.533-243.2 0-125.866-96-228.266-217.6-241.066z" fill="#00C1DE"/><path d="M535.467 778.667v-51.2h17.066v-21.334h-68.266v21.334h17.066v51.2A38.25 38.25 0 0 0 518.4 851.2a38.25 38.25 0 0 0 17.067-72.533zm172.8-72.534H729.6v21.334h-21.333zm-313.6 0H416v21.334h-21.333zm224 0H640v21.334h-21.333zm44.8 0H684.8v21.334h-21.333zm-89.6 0H595.2v21.334h-21.333zm-224 0H371.2v21.334h-21.333zm89.6 0H460.8v21.334h-21.333zm-132.267 0h21.333v21.334H307.2zm0-70.4h21.333V652.8H307.2zm0 36.267h21.333v17.067H307.2zm0-74.667h21.333v21.334H307.2zm266.667 0H595.2v21.334h-21.333zm-134.4 0H460.8v21.334h-21.333zm268.8 0H729.6v21.334h-21.333zm0 74.667H729.6v17.067h-21.333zm0-36.267H729.6V652.8h-21.333zM518.4 445.867a38.25 38.25 0 0 0-17.067 72.533v78.933h-17.066v21.334h68.266v-21.334h-17.066V518.4a38.25 38.25 0 0 0-17.067-72.533zm-98.133 38.4c0-21.334-17.067-38.4-38.4-38.4A38.25 38.25 0 0 0 364.8 518.4v78.933h-14.933v21.334H416v-21.334h-19.2V518.4c14.933-4.267 23.467-19.2 23.467-34.133zm247.466 134.4H684.8v-21.334h-17.067V518.4a38.25 38.25 0 0 0-17.066-72.533A38.25 38.25 0 0 0 633.6 518.4v78.933h-14.933v21.334h49.066z" fill="#00C1DE"/></svg>
